!!!ONB: MCCC : IAH0001_00 : Extracted Monophonic Melody
!!!COM: Henselt, Adolf von
!!!OTL: Ballade, Op.31
!!!SCT: Op.31
!!!ODT: 1854///
**kern
*staff1
*IPiano
*clefG2
*k[b-e-]
*B-:
*met(c)
*M4/4
4d
4f
=1
2b-
4B-
4d
=2
2g
4B-
4c
=3
4d
4f
8r
8f
8g
8f
=4
2cc
2r
=5
4ff
4ddd
4ccc
8bb-
8aa
=6
2gg[
8gg]
8ff
8ee-
8dd
=7
4.cc
8dd
4ee-
4ff
=8
2dd
4r
4ff
=9
4bb-
8aa
8bb-
4ccc
4ff
=10
4.ddd
8ddd
8ccc
8bb-
8aa
8gg
=11
4ff
8ee
8dd
4aa
4cc#
=12
2dd
2ff
=13
4ff
4ddd
8ccc
8bb-
8dd
8ee-
=14
2ff
8r
8ff
8gg
8aa
=15
4bb-
8ccc
8ddd[
8ddd]
8ee-
8ccc
8bb-
=16
4aa
4eee-[
8eee-]
8ff
8gg
8ff
=17
4ff
4.ccc
8ccc-
8bb-
8aa-
=18
2gg
8r
8gg
8aa
8bb-
=19
4bb-
4dd[
8dd]
8cc
8ff
8ee-
=20
4.dd
8ee-
4ff
4aa-
=21
4gg
4bb-
4aa
4ggg-
=22
4fff
4.fff
8eee-
8bb-
8ccc
=23
4ddd
8ccc
8bb-
12aa
12gg
12ff
12ee-
12cc
12dd
=24
2b-
8r
=25
*k[b-]
*d:
4c
4f
4A
4d
=26
4c
8a
8g
8f
4G
4e
8g
=27
4c
8a
8r
8cc
8cc
8b-
8a
8g
=28
8r
8f
8f
8f
8G
8e
8d
8cc
=29
4c
[4f
8f]
8dd
8d
8dd
=30
8r
8ee-
[8dd
8dd_
8dd]
8cc
8b
8b-
=31
4a
8a
8g
4A
4G
=32
4.A
8ee
4f
8r
8g#
=33
4c#
8gg
8ee
8g
8dd
8ff
8g#
=34
4c#
8cc#
8ee
8aa
8cc#
4e-
=35
12cc
12b-
12ee
12dd
12cc
12b-
4A
4G
=36
4F
8r
8e
8f
8f#
8g
8f
=37
*k[b-e-]
*B-:
4ff
4ddd
4ccc
8bb-
8aa
=38
2gg[
8gg]
8ff
8ee-
8dd
=39
4.cc
8dd
4ee-
8gg
8ff
=40
2dd
8r
8dd
8ee-
8dd
=41
4gg[
12gg]
12ff#
12gg
4aa
4dd
=42
4.bb-
8bb-
4aa
4gg
=43
4ff
8ee
8dd
4aa
4cc#
=44
2dd
2ff
=45
4ff
4ddd
8ccc
8bb-
8dd
8ee-
=46
2ff[
8ff]
8gg
8aa-
8aa
=47
12bb-[
24bb-]
24aa
24bb-
24ccc
24ddd
24eee-
24eee
24fff
24fff#
24ggg
24aaa-
24aaa
24bbb-
24bbb
24cccc
24bbb-
24aaa-
24fff#
24ddd
24bb-
24aa
24aa-
=48
4gg[
8gg]
8aa
12bb-
12aa
12bb-
12ccc
12bb-
12ccc
=49
6ddd
6eee-
4ddd[
12ddd]
12fff[
12fff]
8eee-
24ddd
=50
4ddd
8ee
8ccc
12ccc
12bb
12ccc
12eee-
12ddd
12ccc
=51
8ccc-
8bb-
8dd
4.bb-
4ccc
=52
8ddd
8bb-[
12bb-]
8ff
24dd
12dd
12cc
12dd
12ee-
12dd
12cc
=53
2b-
4r
4bb-
=54
4bb-
8aa
8bb-
4ccc
4eee-
=55
4ddd
2bb-
4ee
=56
8gg
8ff
[4dd
12dd]
12cc
12dd
12ee-
12dd
12cc
=57
2b-
4r
4bb-
=58
4bb-[
12bb-]
12aa
12bb-
8ccc
4aaa
8ggg
=59
8r
8bbb-[
12bbb-]
12fff#
12ggg
12ccc#
12ddd
12aa
12bb-
12ff#
12gg
=60
8r
8bbb-[
12bbb-]
12aaa
12ggg
12fff
12eee-
12ddd
16ccc
16bb-
16aa
16gg
=61
8r
8dddd[
16dddd]
16aaa
16bbb-
16fff#
16ggg
16ddd
16eee-
16ccc#
16ddd
16aa
16bb-
16gg
=62
8r
8gggg[
24gggg]
24ffff#
24ffff
24eeee-
24dddd
24cccc
24bbb-
24aaa
24ggg
24fff#
24fff
24eee-
24ddd
24ccc#
24ccc
24bb-
24aa
24gg
=63
4ff#
8a
8dd
8dd
8cc#
8ee
8gg
=64
4.ff#
8dd
4bb-
8aa
8gg
=65
4.ff#
8a
8a
8dd
8cc
8b
8dd
8ff
=66
4.ee
8g
8g
8cc
8aa-
8b
8gg
8ff
=67
4.ee-
8g
8g
8cc
8b-
8a
8cc
8ee-
=68
4.dd
8a
8a
8cc
8b-
8a
8cc
8ee-
=69
4.dd
8a
8a
8cc
8b-
8a
8cc
8ee-
=70
4.dd
8a
8a
8dd
4.ff#
8dd
8dd
8ff#
=71
4.aa
8ff#
8ff#
8aa
4.ddd
8ff#
8ff#
8aa
=72
2fff#
16dd
4dd
8r
8dd
8a
8f#
8.r
16f#
8f#
8g
8b-
8a
4d
=73
24r
24aaa
24ggg
24fff#
24bbb-
24aaa
24fff#
24ddd
24eee-
24ccc
24bb
24ddd
24ccc
24aa
24gg
24ff#
24bb-
24aa
24ff#
24dd
24ee-
24cc
24b
24dd
24cc
24a
24g
=74
24f#
24b-
24a
24f#
24d
24e-
24c
24B
24d
24c
24A
24G
24F#
24A
24c
24e-
24a
24a-
24g
24f#
24e-
24c
24A
24G
24F#
24A
24e-
24f#
24cc
24b
24b-
24a-
24f#
24e-
24c
24A
=75
24F#
24A
24e-
24f#
24ee-
24dd
24cc
24a
24f#
24e-
24c
24A
24F#
24A
24e-
24f#
24cc
24a
24ee-
24ff
24ccc
24aa
24eee-
24fff
24cccc
24bbb
24bbb-
24aaa
24aaa-
24ggg
24fff#
24fff
24eee
24eee-
24ddd
24ddd-
=76
24ccc
24bb
24bb-
24aa
24aa-
24gg
24gg-
24ff
24ee
24ee-
24dd
24dd-
24cc
24b
24b-
24a
24a-
24g
24g-
24f
24e
24e-
24d
24d-
=77
8c
8d
2e-
2e-
2a
=78
*M6/8
10.d
10.e
10.f#
10.g
10.a
=79
4b-
8a
4g
8a
=80
4b-
8cc
4ee-
8dd
=81
4aa
8cc
4b-
8a
=82
4b-
8cc
4a
8d
=83
4b-
8a
4g
8a
=84
4b-
8cc
4ee-
8dd
=85
4ff
8ee-
4dd
8gg
=86
4ff
8ee-
4dd
8dd
=87
4dd
8ee
4ff
8gg
=88
4aa
8bb-
8aa
8eee
8ddd
=89
4ccc
8bb-
4aa
8gg
=90
4ff
8ee
4ee
8a
=91
4dd
8ee
4ff
8gg
=92
4aa
8bb-
4aa
8eee-
=93
4ddd
8gg
8ff
8ee
8dd
=94
8cc
8aa
8gg
4ff
8f
=95
4cc
8cc
4dd
8b-
=96
8cc
8gg
4ff
8b-
=97
4cc
8cc#
4dd
8b
=98
8cc
8gg
4ff
8dd
=99
4bb-
8ff
4ee-
8dd
=100
4cc
8cc#
4dd
8dd
=101
4gg
8dd
4cc
8cc
=102
4b-
8b-
4a
8d
=103
4b-
8b-
8b-
8g
=104
8f#
8cc
4ee-
8dd
=105
4bb-
8bb-
8bb-
8gg
=106
8ddd
8ddd
8aa
8aa
=107
8ff#
8ff#
8dd
8dd
=108
8a
8a
8f#
8f#
=109
8d
8d
8B-
=110
4b-
8a
4g
8a
=111
4b-
8g
4ee-
8dd
=112
4aa
8cc
4b-
8a
=113
8b-
8dd
8cc
4a
8dd
=114
8gg
8gg
8ee-
8a-
=115
8f#
8cc
8b-
8ee-
=116
8aa-
8aa-
8ff
8b-
=117
8g
8dd-
4cc
8cc
=118
8ff
8ff
8dd-
8g-
*M3/8
8f
8f
=119
*M6/8
4e
8cc
4cc
8ff
=120
4ee
8cc
4cc
8ff
=121
4ee
8cc
4aa-
8ff
=122
4ee
8cc
[4b
16b]
16b
=123
4cc
8ccc
4ccc
8fff
=124
4eee
8ccc
4ccc
8fff
=125
4eee
8ccc
4aaa-
8fff
=126
4eee
8ccc
[4bb
16bb]
16bb
=127
16ccc
16aa
8gg
8gg
8ee
8cc
8g
=128
8e
8c
8G
8G
8F#
8F
=129
8c
8cccc
4ggg
8ccc
8gg[
=130
8gg]
8cc
8g
8B
8c
8d
=131
8e
8r
8r
8g
8a
8b
=132
4cc
8g
8g
8a
8b
=133
8cc
8g
8a-
4b-
8dd-
=134
8cc
8g
8a-
4b-
8dd-
=135
8cc
8g
8a-
8b-
8b-
8cc
=136
8dd-
8cc
8b
4b-
8cc
=137
*k[b-]
*d:
8a
8b-
8cc
8dd
8ee
8ff
=138
4.gg
4b-
8b-
=139
8a
8b-
8cc
8dd
8ee
8ff
=140
8aa
8gg
8ee
4cc
8cc
=141
4aa
8ee
8ff
8cc#
8dd
=142
4.cc[
8cc]
8b
8cc
=143
4.dd
4.g
=144
[4.ee
4ee]
8ee
=145
[4.ee
8ee]
8dd
8cc
=146
[4.b
8b]
8cc
8dd
=147
4.ee
4ff
8ee
=148
[4.cc
8cc]
8b
8a
=149
[4.dd
8dd]
8ee
8ff
=150
[4.ee
8ee]
8dd
8cc
=151
[4.dd
8dd]
8ee
8ff
=152
[4.ee
8ee]
8dd
8cc
=153
[4.dd
8dd]
8ee
8ff
=154
[4.gg
8gg]
8ff
8ee
=155
4.ee
4.dd
=156
[4.cc
8cc]
8b
8cc
=157
[4.dd-
8dd-]
8ff
8aa-
=158
[4.gg
8gg]
8b
8cc
=159
[4.dd-
8dd-]
8ff
8aa-
=160
[4.gg
8gg]
8bb
8ccc
=161
4.ddd-[
8ddd-]
8ccc
8ddd-
=162
4.ddd[
8ddd]
8ccc#
8ddd
=163
4.eee-[
8eee-]
8ddd
8eee-
=164
4.eee
8gg
8dd-
8b-
=165
8gg
8ff
8ee
8dd-
8cc
8b
=166
8b-
8g
8e
8d-
8c
16cc
16ccc
=167
16a
16aa
16b-
16bb-
16cc
16ccc
16dd
16ddd
16ee
16eee
16ff
16fff
=168
16aaa
16ggg
16eee
16ccc
16bb-
16gg
16ccc
16cc
16b-
16g
16dd
16cc
=169
16a
16aa
16b-
16bb-
16cc
16ccc
16dd
16ddd
16ee
16eee
16ff
16fff
=170
16aaa
16ggg
16eee
16ccc
16bb-
16gg
16ccc
16cc
16b-
16g
16dd
16cc
=171
16a
16aa
16b-
16bb-
16cc
16ccc
16cc#
16ccc#
16dd
16ddd
16ee
16eee
=172
16ff
16fff
16a
16aa
16cc
16ccc
16b
16bb
16cc
16ccc
16dd
16ddd
=173
16ee-
16eee-
16g
16gg
16b-
16bb-
16a
16aa
16b-
16bb-
16cc
16ccc
=174
16ee-
16eee-
16dd
16ddd
16cc
16ccc
16b-
16bb-
16a
16aa
16g
16gg
=175
16f
16ff
16a
16aa
16cc
16ccc
16ff
16fff
16aa
16aaa
16gg
16ggg
=176
16a
16aa
16b-
16bb-
16cc
16ccc
16dd
16ddd
16ee
16eee
16ff
16fff
=177
16aaa
16ggg
16eee
16ccc
16bb-
16gg
16ccc
16cc
16b-
16g
16dd
16cc
=178
16a
16aa
16b-
16bb-
16cc
16ccc
16dd
16ddd
16ee
16eee
16ff
16fff
=179
16aaa
16ggg
16eee
16ccc
16bb-
16gg
16ccc
16cc
16b-
16g
16dd
16cc
=180
16a
16aa
16b-
16bb-
16cc
16ccc
16cc#
16ccc#
16dd
16ddd
16ee
16eee
=181
16ff
16fff
16a
16aa
16cc
16ccc
16b
16bb
16cc
16ccc
16dd
16ddd
=182
16ee-
16eee-
16g
16gg
16b-
16bb-
16a
16aa
16b-
16bb-
16cc
16ccc
=183
16ee-
16eee-
16dd
16ddd
16cc
16ccc
16b-
16bb-
16a
16aa
16g
16gg
=184
16f
16ff
16a
16aa
16cc
16ccc
16ff
16fff
16aa
16aaa
16gg
16ggg
=185
4fff
8a
4b-
16A
16d
16b-]
16a
=186
4a
16B-
16d
16a]
16g
4e
16B-
16d
16c
=187
16a
16c
16F
8a
4b-
16A
16d
16b-]
16a
=188
4a
16B-
16d
16a]
16g
4e
16B-
16d
16c
=189
16a
16c
16F
8a
4b-
16c
16e-
16b-]
16cc
=190
4cc
16B-
16e-
16cc]
16b-
8b-
8.a
16e
8d
16g
=191
4f
16A
16d
16f]
16f#
4g
16B-
16d
16g]
16g#
=192
4a
16A
16d
16a]
16g#
4a
16A
16e
16a]
16b
=193
4cc
16c
16f
16cc]
16dd
4b
16d
16f
16b]
16ee
=194
4a
16c
16f
16a]
16b
4cc
16c
16g
16cc]
16dd
=195
4ee
16e
16a
16ee]
16cc
8aa
8.gg
16ee
8dd
16ff
=196
4ee
16e
16a
16ee]
16dd
4cc
16B-
16d
16cc]
16b-
=197
4a
16A
16d
16a]
16a
4b-
16c
16e-
16b-]
16cc
=198
4b-
16B-
16f
16b-]
16b-
8cc
8dd
16g
8ee-
=199
4dd
16d
16a
16dd]
16dd
4ee
16g
16b-
16ee]
16gg
=200
4ff
16f
16cc
16ff]
16ff
8gg
8aa
8dd
8bb-
16cc
=201
4aa
16a
16dd
16aa]
16ff
4cc
16e
16a
8b-
16c
=202
4a
16c
16g
16a]
16cc
4bb-
16b-
16dd
16bb-]
16bb-
=203
4aa
16a
16dd
16aa]
16ff
8dd
8cc
16a
8b-
16c
=204
4a
16c
16g
16a]
16cc
4ccc
16cc
16ee-
16ccc]
16ccc
=205
4bb-
16b-
16ee-
16bb-]
16gg
4dd
16f#
16b-
8cc
16d
=206
4cc
16d
16a
16cc]
16b-
8b-
8.a
16c
8B-
16g
=207
4f
16A
16d
16f]
16f#
4g
16B-
16d
16g]
16g#
=208
4a
16A
16g
16a]
16cc
4bb-
16b-
16dd
16bb-]
16bb-
=209
4aa
16a
16dd
16aa]
16ff
8gg
8ee
16a
16cc
16b-
=210
4a
16c
16g
16a]
16cc
4bb-
16b-
16dd
16bb-]
16bb-
=211
4aa
16cc
16a
16dd
16aa]
16ff
8.gg
16e
16ee
16cc
16b-
=212
4a
16c
16g
16a]
16cc
4ccc
16cc
16ee-
16ccc]
16ccc
=213
4bb-
16b-
16ee-
16bb-]
16gg
8aa
8ff#
16b-
16dd
16cc
=214
4cc
16d
16a
16cc]
16b-
8b-
8.a
16c
8B-
16g
=215
4f
16A
16d
16f]
16f#
16g
16B-
16c
16e
16cc
16B-
=216
16f
16A
16c
16g
16f
16a
4cc
16g
16cc]
16cc
=217
4b
16B
16g
16b]
16b
4b-
16B-
16f
16b-]
16b-
=218
[4a
16a]
16g
16a]
16a
4a-
16A-
16g
16a-]
16a-
=219
[4a
16a]
16g
16a]
16dd
4cc
16e
16a
16cc]
16b-
=220
[4a
16a]
16g
16a]
16a
[4.ff
16ff]
16g
16dd]
16cc
=221
[4.ff
16ff]
16g
16b]
16b
[4.ff
16ff]
16f
16cc]
16b-
=222
[4.ff
16ff]
16g
16a]
16a
[4.ff
16ff]
16g
16a-]
16a-
=223
[4.ff
16ff]
16g
16a]
16b-
4.cc
16c
16a
16g]
16cc
=224
4fff
4.ddd-
8bb[
=225
4bb]
4.ccc
16ddd
16ccc
=226
4fff
4.ddd-
8bb[
=227
4bb]
4.ccc
16ddd
16ccc
=228
8fff
16r
8ggg-
8fff
16eee-
16ccc
16aa
=229
16gg-
16ee-
16cc
16a
16r
8g-
16f-
=230
4bb-
4.gg-
8ee-[
=231
4ee-]
4.ff
16gg
16ff
=232
4bb-
4.gg-
8ee-[
=233
4ee-]
4.ff
16gg
16ff
=234
8bb-
16r
8cccc-
8bbb-
16aaa-
16fff
16ddd
=235
16ccc-
16aa-
16ff
16dd
16r
8cc-
16b-
=236
4eee-
4.ccc-
8aa-[
=237
4aa-]
4.bb-
16ccc
16bb-
=238
4eee-
4.ccc-
8aa-[
=239
4aa-]
4.bb-
16ccc
16bb-
=240
8eee-
16r
8bbb-
8aaa
16ggg
16eee-
16bb-
=241
16gg
16ee-
16b-
16g
16e-
16r
16c#
=242
8d
16r
8bbb-
8aaa
16ggg
16ddd
16bb-
=243
16gg
16dd
16b-
16g
16c#
16r
16d
=244
8e
16r
8bbb-
8aaa
16ggg
16eeee
16cccc#
=245
16bbb-
16ggg
16eee
16ccc#
16r
8bb-
16aa[
=246
16aa]
16gg
16eee
16ccc#
16bb-
16gg
16ee
=247
16cc#
16r
8b-
8a
16g
16b-
16c#
=248
*k[b-e-]
*B-:
4d
8dd
4dd
8gg
=249
4ff#
8dd
4dd
8gg
=250
4ff#
8dd
4bb-
8gg
=251
4ff#
8dd
[4cc#
16cc#]
16cc#
=252
4dd
8ddd
4ddd
8ggg
=253
4fff#
8ddd
4ddd
8ggg
=254
4fff#
8ddd
4bbb-
8ggg
=255
4fff#
8ddd
[4ccc#
16ccc#]
16ccc#
=256
16ddd
16bb
8aa
8aa
8ff#
8dd
8a
=257
8f#
8d
8A
8A
8G#
8G
=258
8d
8dddd
4aaa
8ddd
8aa[
=259
8aa]
8dd
8a
8a
8b
8cc#
=260
4dd
8a
8a
8b
8cc#
=261
4dd
8a
8a
8b
8cc#
=262
8dd
16r
8eee-
8ddd
16ccc
16aa
16ff#
=263
16r
8ee-
8dd
16cc
16a
16f#
16d
=264
2.e-
=265
4.c
4.e-
=266
8d
16r
8aaa
8ggg
16fff#
16ddd
16aa
=267
16ff#
16dd
16a
16f#
16c#
16d
=268
2.e-
=269
4.c
4.e-
=270
8d
8.r
16e-
4.e-[
=271
4.e-]
4.c
=272
8d
8.r
16e-
4.e-[
=273
4.e-]
4.c
=274
2.d[
=275
2.d]
=276
2.d[
=277
2.d]
10.d
10.e
10.f#
10.g
10.a
=278
4b-
8a
4g
8a
=279
4b-
8cc
4ee-
8dd
=280
4aa
8cc
4b-
8a
=281
4b-
8cc
4a
8d
=282
4b-
8a
4g
8a
=283
4b-
8cc
4ee-
8dd
=284
4ff
8ee-
4dd
8gg
=285
4ff
8ee-
4dd
8dd
=286
4dd
8ee
4ff
8gg
=287
4aa
8bb-
8aa
8eee
8ddd
=288
4ccc
8bb-
4aa
8gg
=289
4ff
8ee
4ee
8a
=290
4dd
8ee
4ff
8gg
=291
4aa
8bb-
4aa
8eee-
=292
4ddd
8gg
8ff
8ee
8dd
=293
8cc
8aa
8gg
4ff
8f
=294
4cc
8cc
4dd
8b-
=295
8cc
8gg
4ff
8b-
=296
4cc
8cc#
4dd
8b
=297
8cc
8gg
4ff
8dd
=298
4bb-
8ff
4ee-
8dd
=299
4cc
8cc#
4dd
8dd
=300
4gg
8dd
4cc
8cc
=301
4b-
8b-
4a
8d
=302
4b-
8b-
8b-
8g
=303
8f#
8cc
4ee-
8dd
=304
4bb-
8bb-
8bb-
8gg
=305
8ddd
8ddd
8aa
8aa
=306
8ff#
8ff#
8dd
8dd
=307
8a
8ee-
4dd
8cc
=308
8a
8ee-
4dd
8cc
=309
8a
8ee-
4dd
8ee-
=310
4dd
8ee-
8dd
8cc#
8cc
=311
4b-
16g
8gg
8a
16d
4g
16d
8ddd
8a
16g
=312
4b-
16g
8ggg
8cc
16b-
4ee-
16cc
8aaa
8dd
16cc
=313
4aa
16dd
8fff#
8cc
16a
4b-
16g
8ggg
8a
16g
=314
4b-
16g
8eee-
8cc
16g
4a
16f#
8ddd
8dd
16a
=315
8gg
16dd
8gg
16dd
8ee-
16cc
8a-
16e-
=316
8f#
16d
8cc
16a
8b-
16g
8g
16e-
=317
16gg
16dd
8ddd
16gg
16ff#
16aa-
16ee-
8eee-
16ee-
16cc
=318
16aa
16ee
8eee
16aa
16gg
16bb-
16ff
8fff
16ff
16dd
=319
8bb
16aa-
8bb
16aa-
8ccc
16aa-
8aa-
16ee-
=320
4gg
16dd-
8ff
16dd-
4ee-
16cc
8a-
16e-
=321
4b-
16e-
8b
16e-
8cc
16a-
8aa-
16ee--
=322
4gg
16dd-
8ddd-
8ff
16dd-
4ee-
16cc
8ccc
8a
16e-
=323
4b-
16e-
8bb-
8b
16g
4cc
16a-
8ccc
8cc
16a
=324
4cc#
16b-
8ccc#
8cc#
16b-
4dd
16b-
8ddd
8dd
16b-
=325
4ee
16b-
8eee
4gg
16cc#
8ggg
4bb-
16ee
8bbb-
=326
4ccc#
16gg
8cccc#
4eee
16bb-
8eeee
4ggg
16ccc#
8gggg
=327
8bb-
8.r
16g
4.g
=328
*k[f#c#g#d#a#e#]
*F#:
*M4/4
2r
8r
8aa#
8bb
8bb#
=329
4ccc#
4aaa#
4ggg#
8fff#
8eee#
=330
2ddd#
12b
8ddd#]
8ccc#
8bb
8aa#
=331
4.gg#
8aa#
4bb
8ddd#
8ccc#
=332
4bb
2.bb-
=333
*k[b-e-]
*B-:
*M6/8
8.r
16g
8g
8a
4.b-
8b-
=334
8b-
8b-
8a
8g
4ee
2r
4g
8g
4r
16aa
16gg
16gg
16dd
16dd
16a
16g
16g
=335
16d
16d
16A
16G
16G
16D
16D
16D
16D
4r
8r
8ff#
8r
8r
=336
2.gg
=337
2.gg
=338
2.gg
4r
2r
4r
4r
4a
4b
4dd
4gg
4aa
4bb
4ddd
4ggg
1bbb
==
*-
